X: 13971
T: Francie Byrne's
R: reel
M: 4/4
K: Adorian
eAAB cBcd|eAAa gedg|eAAB (3cBc dc|(3BcB GA Bcdg:|
e<cef (3gag fg|e<^def gdBd|e^def (3gfg ed|^cdgd BAAg|
e^def (3gag fg|e^def gdBd|e^def (3gfg ed|eaaf gbag||

